F[BALLADE
CUT[Graf und Nonne (Die Nonne)
    Dort da die Rose wuchse,]
CNR[war meine Liebste hier,]
REG[Mitteleuropa, Deutschland]
SRC[8, S. 292
    1669 Handschrift aus Leipzig]
KEY[Q1155P.16  G 4/4]
MEL[1_2_  3__3__5__5432  3___2__
    2__  3__3__4#__4#567  5___0__
    5__  6__.7_+1__5__  6_7_6_.55__
    3__  4__3__2__.1_  1___0__ //] >>
FCT[Liebes - Lied]
CMT[Melodievergleich zu Q0155Q., anderes Lied (genetisch verwandt ?).
    Schlusspause ergaenzt.]
